X: 36615
T: Shan Van Vocht, The
R: reel
M: 4/4
K: Gmajor
(d2 c)|B2 G A2 E|G2 E D2 G|A3 A3|A3 (d2 c)|
B2 G A2 E|G2 E D2 F|G3 G3|G2 z (G2 A)|
B2 c d2 d|e2 f g2 e|d2 B (BA)G|A3 (d2 c)|
B2 G A2 E|G2 E D2 G|A3 A3|A2 z d =c c|
B2 G A2 E|G2 E D2 F|G3 (B2 A)|G2 z z2 z||

